X:597
T: Huaishu kaihua
N: C2102
O: China, Shanxi Xixian
S: I, 299, 2)]
N: Han
R: Xiaodiao]
M: 2/4
L: 1/16
K: Bb
c4g2b2 | c4c4 | f4f4 | f2g2e4
c4g2b2 | c4=e2g2 | f4g2=e2 | f8
c4g2b2 | c4c4 | f4f4 | f2g2e4
d3cb2b2 | c2b2a2g2 | f4g2e2 | f8

